X:804
T:Balmoral Castle 
C:Joe Buchanan's Scottish Tome - Page 031.0
I:031 0
R:Strathspey
Z:Carl Allison
L:1/8
M:4/4
K:A
E | [AA]2 c>A |  .E.A.C.E | ({C}[D2D2]) (B>A) |  A/G/F/E/ !tenuto!.F!tenuto!.G |
[A2A2] c>A !tenuto!.E!tenuto!.A!tenuto!.C!tenuto!.A, | D/E/F/D/ B,G ({G}A2) A :|
e |{/f} a2 efg | !tenuto!.a!tenuto!.e !tenuto!.c!tenuto!.A |{C}[DD]2 B>A | AGFE [ee].f.g |
{g}a2 e.f/.g/ | {g}!tenuto!.a!tenuto!.e c!tenuto!.A  | DEFD B,G | {G}([AA]2 A)e |
{g}a2 ef/g/ | .a.e .c.A | {C}[DD]2 (B>A) | AGFE !tenuto!.F!tenuto!.G |
{G}[AA]2 c>A |  EA CA, | DEFD B,G | {G}([AA]2 A) |]
E | A/B/c/d/ c/B/A/F/ | E/F/G/A/ C/E/A,/C/ | D/C/D/F/ d/c/B/A/ | A/G/F/E/ e/d/c/B/ |
A/B/c/d/ c/B/A/F/ |  E/F/G/A/ C/E/A,/C/ | DEFD B,G |{/G} ([AA]2 A) :|
e | a/e/c/A/ G/A/c/e/ | a/g/f/e/ d/c/B/A/ | D/C/D/F/ d/c/B/A/ | A/G/F/E/ d/e/f/g/ |
a/e/c/A/ G/A/c/e/ | a/g/f/e/ d/c/B/A/ | D/E/F/D/ !tenuto!.B,!tenuto!.G |{/G} [AA]2 Ae |
a/A/f/A/ e/A/c/A/ | a/g/f/e/ d/c/B/A/ | D/C/D/F/ d/c/B/A/ | A/G/F/E/ e/d/c/B/ |
(A/B/).c/.A/ (E/G/).A/.E/ | (B,D).E.C (AE).C.A, | (DE).F.D B,G | {G}([AA]2 A) |]

